!!!!SEGMENT: pl-kk--kk-i-88--002-004_golabek-jakub--missa-2-sanctus.krn
!!!cenid: 17xx:2578
!!!COM: Gołąbek, Jakub
!!!COM-rismID: pe30008748
!!!CDT: 1739-1789/03/30
!!!CNT: Polish
!!!OPR: Missa 2
!!!OTL: Sanctus
!!!OMV: 004
!!!PDT:
!!!AGN: Sacred; Mass
!!!YEC: Copyright 2022 Narodowy Instytut Fryderyka Chopina (https://polishscores.org)
!!!YEM: License CC-BY-4.0 (https://creativecommons.org/licenses/by/4.0)
!!!SMS-siglum: PL-Kk
!!!SMS-shelfmark: Kk.I.88
!!!SMS-variant:
!!!SMS-altvar:
!!!SMS-shelfwork: 002-004 M
!!!NIFC-rismSourceID: 1001164072
!!!NIFC-rismChildID: 1001164081
!!!NIFC-islandoraID:
!!!URL-pdf-islandora: https://repozytorium.nifc.pl/islandora/object/pl-kk%3A3086/datastream/PDF/view
!!!URL-scan: https://polish.musicsources.pl/pl/lokalizacje/galeria/rekopisy/6148-missa/4 @EN{Scan on Polish Music Sources Website} @PL{Skany w portalu Dziedzictwo Muzyki Polskiej w otwartym dostępie}
!!!IIIF:
!!!ONB-nifc: UWAGA: C - f. 4r-5v; A - f. 12r-13v; T - f. 20r-21v; B - f. 28r-29v; B rip - f. 34r-35v. Proszę uwzględniać B rip. Części Mszy: 1. Kyrie, 2. Christe, 3. Et in terra, 4. Sanctus, 5. Osanna, 6. Benedictus, 7. Agnus Dei.
!!!OMD:
!!!AIN: 1 alto 2 bass 1 canto 1 tenor
!!!key: F
**kern	**text	**kern	**text	**kern	**text	**kern	**text	**kern	**text
*part5	*part5	*part4	*part4	*part3	*part3	*part2	*part2	*part1	*part1
*staff5	*staff5	*staff4	*staff4	*staff3	*staff3	*staff2	*staff2	*staff1	*staff1
*I"Baſso E ripieno	*	*I"Baſso	*	*I"Tenore	*	*I"Alto	*	*I"Canto	*
*I'B rip	*	*I'B	*	*I'T	*	*I'A	*	*I'S	*
*Ibass	*	*Ibass	*	*Itenor	*	*Ialto	*	*Icanto	*
*ICvox	*	*ICvox	*	*ICvox	*	*ICvox	*	*ICvox	*
*clefF4	*	*clefF4	*	*clefC4	*	*clefC3	*	*clefC1	*
*k[b-]	*	*k[b-]	*	*k[b-]	*	*k[b-]	*	*k[b-]	*
*F:	*	*F:	*	*F:	*	*F:	*	*F:	*
*M3/2	*	*M3/2	*	*M3/2	*	*M3/2	*	*M3/2	*
=1	=1	=1	=1	=1	=1	=1	=1	=1	=1
4F\	San-	4F\	San-	1.A	San-	1.f	San-	1.cc	San-
4E\	.	4E\	.	.	.	.	.	.	.
4F\	.	4F\	.	.	.	.	.	.	.
4G\	.	4G\	.	.	.	.	.	.	.
4A\	.	4A\	.	.	.	.	.	.	.
4B-\	.	4B-\	.	.	.	.	.	.	.
=2	=2	=2	=2	=2	=2	=2	=2	=2	=2
*2\right	*	*2\right	*	*	*	*2\right	*	*2\right	*
2c\	.	2c\	.	2A/	.	2f\	.	2cc\	.
1C	-ctus	1C	-ctus	1G	-ctus	1e	-ctus	1cc	-ctus
=3	=3	=3	=3	=3	=3	=3	=3	=3	=3
*	*	*	*	*	*	*	*	*	*ij
4D/	San-	4D\	San-	1.F	San-	1.d	San-	1.a	San-
4C#X/	.	4C#X\	.	.	.	.	.	.	.
4D/	.	4D\	.	.	.	.	.	.	.
4E/	.	4E\	.	.	.	.	.	.	.
4F\	.	4F\	.	.	.	.	.	.	.
4G\	.	4G\	.	.	.	.	.	.	.
=4	=4	=4	=4	=4	=4	=4	=4	=4	=4
2A\	.	2A\	.	2F/	.	2d\	.	2a\	.
1AA	-ctus	1AA	-ctus	1E	-ctus	1c#X	-ctus	1a	-ctus
*	*	*	*	*	*	*	*	*	*Xij
=5	=5	=5	=5	=5	=5	=5	=5	=5	=5
4BB-/	San-	4BB-/	San-	1.d	San-	1.g	San-	1.b-	San-
4AA/	.	4AA/	.	.	.	.	.	.	.
4BB-/	.	4BB-/	.	.	.	.	.	.	.
4C/	.	4C/	.	.	.	.	.	.	.
4D/	.	4D/	.	.	.	.	.	.	.
4E/	.	4E/	.	.	.	.	.	.	.
!	!	!LO:LB:g=original	!	!	!	!	!	!	!
=6	=6	=6	=6	=6	=6	=6	=6	=6	=6
4F\	.	4F\	.	1.c	.	4a\	.	4cc\	.
4G\	.	4G\	.	.	.	4g\	.	4b-\	.
4A\	.	4A\	.	.	.	4f\	.	4a\	.
4G\	.	4G\	.	.	.	4e\	.	4b-\	.
4A\	.	4A\	.	.	.	4f\	.	4cc\	.
4F\	.	4F\	.	.	.	4a\	.	4a\	.
=7	=7	=7	=7	=7	=7	=7	=7	=7	=7
*	*	*	*	*2\right	*	*	*	*	*
4B-\	.	4B-\	.	2d\	.	2g\	.	2b-\	.
4G\	.	4G\	.	.	.	.	.	.	.
2c\	.	2c\	.	1c	.	2f\	.	2a\	.
2C/	.	2C/	.	.	.	2e\	.	2g\	.
!	!	!	!	!	!	!LO:LB:g=original	!	!LO:LB:g=original	!
=8	=8	=8	=8	=8	=8	=8	=8	=8	=8
2F\	-ctus	2F\	-ctus	2c\	-ctus	2f\	-ctus	2a\	-ctus
2F\	Do-	2F\	Do-	2c\	Do-	2a\	Do-	2a\	Do-
4G\	-mi-	4G\	-mi-	4B-\	-mi-	4g\	-mi-	4cc\	-mi-
4A\	-nus	4A\	-nus	4A\	-nus	4f\	-nus	4cc\	-nus
!LO:LB:g=original	!	!	!	!LO:LB:g=original	!	!	!	!	!
=9	=9	=9	=9	=9	=9	=9	=9	=9	=9
2G\	de-	2G\	De-	1c	De-	1e	De-	2b-\	De-
2E\	.	2E\	.	.	.	.	.	2g\	.
2F\	-us	2F\	-us	2c\	-us	2f\	-us	2a\	-us
=10	=10	=10	=10	=10	=10	=10	=10	=10	=10
1B-	Sa-	1B-	Sa-	1B-	Sa-	1f	Sa-	1dd	Sa-
2Bn\	-ba-	2Bn\	-ba-	2G/	-ba-	2f\	-ba-	2dd\	-ba-
=11	=11	=11	=11	=11	=11	=11	=11	=11	=11
1.c	-oth.	1.c	-oth.	1.G	-oth.	1.e	-oth.	1.cc	-oth.
=12	=12	=12	=12	=12	=12	=12	=12	=12	=12
2C/	Ple-	2C/	Ple-	2B-X\	Ple-	4g\	Ple-	4ee\	Ple-
.	.	.	.	.	.	4f\	.	4dd\	.
2C/	-ni-	2C/	-ni-	2B-\	-ni-	4e\	-ni-	4cc\	-ni-
.	.	.	.	.	.	4d\	.	4b-\	.
2C/	-sunt	2C/	-sunt	2B-\	-sunt	4c\	-sunt	4a\	-sunt
.	.	.	.	.	.	4B-\	.	4g\	.
!	!	!LO:LB:g=original	!	!	!	!	!	!	!
=13	=13	=13	=13	=13	=13	=13	=13	=13	=13
2F\	cae-	2F\	cae-	2c\	Cae-	2A/	cae-	1cc	cae-
2G\	.	2G\	.	2B-\	.	2B-/	.	.	.
2A\	-li	2A\	-li	2A\	-li	2c/	-li	2cc\	-li
=14	=14	=14	=14	=14	=14	=14	=14	=14	=14
2F\	cae-	2F\	cae-	2c\	cae-	4f\	cae-	4a\	cae-
.	.	.	.	.	.	4a\	-li	4cc\	.
2F\	-li	2F\	-li	2c\	-li	4b-\	.	4dd\	-li
.	.	.	.	.	.	4a\	.	4cc\	.
4B-\	et	4B-\	et	2d\	et	4g\	et	4b-\	et
4Bn\	.	4Bn\	.	.	.	4f\	.	4a\	.
!	!	!	!	!	!	!LO:LB:g=original	!	!LO:LB:g=original	!
=15	=15	=15	=15	=15	=15	=15	=15	=15	=15
2c\	ter-	2c\	ter-	2c\	ter-	2f\	ter-	2a\	ter-
2C/	-ra	2C/	-ra	2c\	-ra	2e\	-ra	2g\	-ra
2r	.	2r	.	2r	.	2r	.	2r	.
!	!	!	!	!LO:LB:g=original	!	!	!	!	!
=16	=16	=16	=16	=16	=16	=16	=16	=16	=16
2.E\	glo-	2.E\	glo-	2.c\	glo-	2.g\	glo-	2.b-\	glo-
4E\	-ri-	4E\	-ri-	4c\	-ri-	4g\	-ri-	4b-\	-ri-
2F\	-a	2F\	-a	2c\	-a	2a\	-a	2a\	-a
=17	=17	=17	=17	=17	=17	=17	=17	=17	=17
*	*ij	*	*	*	*	*	*	*	*
2.B-\	glo-	2.B-\	glo-	2.c\	glo-	2.g\	glo-	2.ee\	glo-
4B-\	-ri-	4B-\	-ri-	4c\	-ri-	4g\	-ri-	4ee\	-ri-
2A\	-a	2A\	-a	2c\	-a	2f\	-a	2cc\	-a
*	*Xij	*	*	*	*	*	*	*	*
=18	=18	=18	=18	=18	=18	=18	=18	=18	=18
2B-\	tu-	2B-\	tu-	2B-\	tu-	2g\	tu-	2dd\	tu-
2c\	.	2c\	.	2A\	.	2f\	.	1cc	.
2C/	.	2C/	.	2G/	.	2e\	.	.	.
=19	=19	=19	=19	=19	=19	=19	=19	=19	=19
1F	-a	1F	-a	1A	-a	1f	-a	1cc	-a
2r	.	2r	.	2r	.	2r	.	2r	.
!	!	!LO:LB:g=original	!	!	!	!	!	!	!
=20	=20	=20	=20	=20	=20	=20	=20	=20	=20
!LO:TX:t=P:problem=t. 20-23 zapisane repetycją	!	!	!	!	!	!	!	!	!
2.E\yy	glo-	2.E\	glo-	2.c\	glo-	2.g\	glo-	2.b-\	glo-
4E\yy	-ri-	4E\	-ri-	4c\	-ri-	4g\	-ri-	4b-\	-ri-
2F\yy	-a	2F\	-a	2c\	-a	2a\	-a	2a\	-a
=21	=21	=21	=21	=21	=21	=21	=21	=21	=21
2.B-\yy	glo-	2.B-\	glo-	2.c\	glo-	2.g\	glo-	2.ee\	glo-
4B-\yy	-ri-	4B-\	-ri-	4c\	-ri-	4g\	-ri-	4ee\	-ri-
2A\yy	-a	2A\	-a	2c\	-a	2f\	-a	2cc\	-a
!	!	!	!	!	!	!LO:LB:g=original	!	!LO:LB:g=original	!
=22	=22	=22	=22	=22	=22	=22	=22	=22	=22
2B-\yy	tu-	2B-\	tu-	2B-\	tu-	2g\	tu-	2dd\	tu-
2c\yy	.	2c\	.	2A\	.	2f\	.	1cc	.
2C/yy	.	2C/	.	2G\	.	2e\	.	.	.
=23	=23	=23	=23	=23	=23	=23	=23	=23	=23
1Fyy	-a	1F	-a	1A	-a	1.f	-a	1cc	-a
2ryy	.	2r	.	2r	.	.	.	2r	.
!LO:LB:g=original	!	!LO:LB:g=original	!	!LO:LB:g=original	!	!LO:LB:g=original	!	!LO:LB:g=original	!
==;;	==	==;;	==	==;;	==	==;;	==	==;;	==
*-	*-	*-	*-	*-	*-	*-	*-	*-	*-
!!!system-decoration: [(s1,s2,s3,s4)]s5
!!!ENC: Berenika Jozajtis
!!!END: 2024-02-27
!!!EED: Marta Chmielewska
!!!EEV: 2024-05-02
